X:224
T:Trip to Durrow
M:C
L:1/8
K:D Major
E|D2FD ADFA|defd B3c|dBBA dBBA|FADE FEE2|!
D2FD ADFA|defd B3c|dBBA FAdB|AFGE FDD:|!
A|dcde fefg|afdf gfed|cdef gebe|gebe gfec|!
dcde fefg|afdf gfed|cdef gbag|fgec d3e|!
fdec d3e|fded B3c|dBBA dBBA|FADE FEE2|!
D2FD ADFA|defd B3c|dBBA FAdB|AFGE FDD:|!
